modules/hawcons-filled/icons/icon-128-document-file-iso.svg

<?xml version="1.0" encoding="UTF-8" standalone="no"?>
<svg width="32px" height="32px" viewBox="0 0 32 32" version="1.1" xmlns="http://www.w3.org/2000/svg" xmlns:xlink="http://www.w3.org/1999/xlink" xmlns:sketch="http://www.bohemiancoding.com/sketch/ns">
    <!-- Generator: Sketch 3.0.3 (7891) - http://www.bohemiancoding.com/sketch -->
    <title>icon 128 document file iso</title>
    <desc>Created with Sketch.</desc>
    <defs></defs>
    <g id="Page-1" stroke="none" stroke-width="1" fill="none" fill-rule="evenodd" sketch:type="MSPage">
        <g id="icon-128-document-file-iso" sketch:type="MSArtboardGroup" fill="#929292">
            <path d="M21,26 L21,28.0025781 C21,29.1090746 20.1057238,30 19.0025781,30 L3.99742191,30 C2.89092539,30 2,29.1012878 2,27.9926701 L2,5.00732994 C2,3.89833832 2.8992496,3 4.0085302,3 L14,3 L14,9.00189865 C14,10.1132936 14.8980806,11 16.0059191,11 L21,11 L21,13 L12.0068483,13 C10.3462119,13 9,14.3422643 9,15.9987856 L9,23.0012144 C9,24.6573979 10.3359915,26 12.0068483,26 L21,26 L21,26 Z M15,3 L15,8.99707067 C15,9.55097324 15.4509752,10 15.990778,10 L21,10 L15,3 L15,3 Z M11.9945615,14 C10.8929956,14 10,14.9001762 10,15.992017 L10,23.007983 C10,24.1081436 10.9023438,25 11.9945615,25 L29.0054385,25 C30.1070044,25 31,24.0998238 31,23.007983 L31,15.992017 C31,14.8918564 30.0976562,14 29.0054385,14 L11.9945615,14 L11.9945615,14 Z M14,17 L14,22 L13,22 L13,23 L16,23 L16,22 L15,22 L15,17 L16,17 L16,16 L13,16 L13,17 L14,17 L14,17 Z M19.0048815,16 C17.897616,16 17,16.8877296 17,18 C17,19.1045695 17.8877296,20 19,20 L19.9906311,20 C20.5480902,20 21,20.4438648 21,21 C21,21.5522847 20.5573397,22 20.0010434,22 L18.9989566,22 C18.4472481,22 18,21.543716 18,21.0044713 L18,20.9931641 L17,20.9931641 L17,20.998921 C17,22.1040864 17.8938998,23 19.0048815,23 L19.9951185,23 C21.102384,23 22,22.1122704 22,21 C22,19.8954305 21.1122704,19 20,19 L19.0093689,19 C18.4519098,19 18,18.5561352 18,18 C18,17.4477153 18.4426603,17 18.9989566,17 L20.0010434,17 C20.5527519,17 21,17.453186 21,18 L22,18 C22,16.8954305 21.1061002,16 19.9951185,16 L19.0048815,16 L19.0048815,16 Z M25.0048815,16 C23.897616,16 23,16.8865548 23,18.0059191 L23,20.9940809 C23,22.1019194 23.8938998,23 25.0048815,23 L25.9951185,23 C27.102384,23 28,22.1134452 28,20.9940809 L28,18.0059191 C28,16.8980806 27.1061002,16 25.9951185,16 L25.0048815,16 L25.0048815,16 Z M24.9989566,17 C24.4472481,17 24,17.4437166 24,17.9998075 L24,21.0001925 C24,21.5523709 24.4426603,22 24.9989566,22 L26.0010434,22 C26.5527519,22 27,21.5562834 27,21.0001925 L27,17.9998075 C27,17.4476291 26.5573397,17 26.0010434,17 L24.9989566,17 L24.9989566,17 Z" id="document-file-iso" sketch:type="MSShapeGroup"></path>
        </g>
    </g>
</svg>

<svg width="32" height="32" viewBox="0 0 32 32" xmlns="http://www.w3.org/2000/svg"><path d="M21 26v2.003A1.995 1.995 0 0 1 19.003 30H3.997A2 2 0 0 1 2 27.993V5.007C2 3.898 2.9 3 4.009 3H14v6.002c0 1.111.898 1.998 2.006 1.998H21v2h-8.993A3.003 3.003 0 0 0 9 15.999V23A2.996 2.996 0 0 0 12.007 26H21zM15 3v5.997c0 .554.451 1.003.99 1.003H21l-6-7zm-3.005 11C10.893 14 10 14.9 10 15.992v7.016A2 2 0 0 0 11.995 25h17.01C30.107 25 31 24.1 31 23.008v-7.016A2 2 0 0 0 29.005 14h-17.01zM14 17v5h-1v1h3v-1h-1v-5h1v-1h-3v1h1zm5.005-1A1.998 1.998 0 0 0 17 18c0 1.105.888 2 2 2h.99c.558 0 1.01.444 1.01 1 0 .552-.443 1-.999 1h-1.002c-.552 0-.999-.456-.999-.996v-.01h-1v.005A2 2 0 0 0 19.005 23h.99A1.998 1.998 0 0 0 22 21c0-1.105-.888-2-2-2h-.99c-.558 0-1.01-.444-1.01-1 0-.552.443-1 .999-1h1.002c.552 0 .999.453.999 1h1a2 2 0 0 0-2.005-2h-.99zm6 0A1.998 1.998 0 0 0 23 18.006v2.988c0 1.108.894 2.006 2.005 2.006h.99A1.998 1.998 0 0 0 28 20.994v-2.988A2.003 2.003 0 0 0 25.995 16h-.99zm-.006 1A.997.997 0 0 0 24 18v3c0 .552.443 1 .999 1h1.002A.997.997 0 0 0 27 21v-3c0-.552-.443-1-.999-1h-1.002z" fill="#929292" fill-rule="evenodd"/></svg>
